assets/svg/1F625.svg

<svg xmlns="http://www.w3.org/2000/svg" viewBox="0 0 64 64" enable-background="new 0 0 64 64"><path fill="#fbb041" d="m63.696 31.73c0 17.524-14.203 31.729-31.729 31.729-17.526 0-31.729-14.204-31.729-31.729.0001-17.525 14.203-31.73 31.73-31.73 17.525 0 31.728 14.205 31.728 31.73"/><g opacity=".987"><path fill="#e79d3c" d="m15.339 40.903c-5.624-12.06-5.875-25.05-.792-35.781-8.613 5.673-14.308 15.418-14.308 26.506 0 17.526 14.202 31.727 31.729 31.727.313 0 .617-.039.929-.048-7.274-6.12-13.404-13.487-17.558-22.404"/></g><g fill="#633d19"><path d="m26.893 14.09c-.404.112-.81.226-1.215.339-.061.016-.098.053-.151.079-.061.023-.12.047-.175.088-.09.071-.161.153-.215.245-.014.018-.031.023-.043.045-2.132 3.676-5.792 5.396-9.978 4.533-2.242-.458-2.332-1.396-4.433-.812-.858.239-.901 1.327-.219 1.775 6.271 4.158 14.316 1.917 17.534-4.881.352-.741-.248-1.65-1.105-1.411"/><path d="m36.27 14.09c.408.112.812.226 1.217.339.061.016.101.053.151.079.061.023.119.047.176.088.091.071.161.153.216.245.012.018.029.023.043.045 2.132 3.676 5.793 5.396 9.977 4.533 2.243-.458 2.333-1.396 4.434-.812.858.239.901 1.327.216 1.775-6.267 4.158-14.312 1.917-17.53-4.881-.355-.741.241-1.65 1.1-1.411"/></g><g fill="#fff"><path d="m27.506 32.657c0 5.338-2.884 9.658-6.447 9.658s-6.453-4.32-6.453-9.658c0-5.333 2.89-9.654 6.453-9.654s6.447 4.321 6.447 9.654"/><path d="m49.33 32.657c0 5.338-2.885 9.658-6.447 9.658s-6.45-4.32-6.45-9.658c0-5.333 2.888-9.654 6.45-9.654s6.447 4.321 6.447 9.654"/></g><g fill="#25333a"><path d="m25.23 32.657c0 2.798-1.87 5.06-4.172 5.06-2.307 0-4.174-2.262-4.174-5.06 0-2.794 1.867-5.056 4.174-5.056 2.302.0001 4.172 2.262 4.172 5.056"/><path d="m47.05 32.657c0 2.798-1.867 5.06-4.172 5.06-2.306 0-4.176-2.262-4.176-5.06 0-2.794 1.87-5.056 4.176-5.056 2.305.0001 4.172 2.262 4.172 5.056"/></g><path fill="#28a6de" d="m.064 46.11c0 4.67 3.112 8.451 6.955 8.451 3.841 0 6.952-3.781 6.952-8.451 0-4.666-3.111-16.18-6.952-16.18-3.843.0001-6.955 11.51-6.955 16.18"/><path fill="#58c5e8" d="m6.727 29.936c-3.743.543-6.727 11.659-6.727 16.244 0 4.707 3.135 8.517 7 8.517 1.764 0 3.354-.819 4.583-2.126-5.5-5.852-7.222-14.599-4.861-22.635"/><path fill="#633d19" d="m21.5 54.4c-.627.711-.239 1.902.788 1.902 1.188 0 5.451-1.799 9.68-1.799 4.734 0 9.421 1.799 9.68 1.799 1.031 0 1.407-1.191.796-1.902-5.672-6.543-15.281-6.543-20.944 0"/></svg>

<?xml version="1.0" encoding="UTF-8" standalone="no"?>
<!-- Generator: Adobe Illustrator 16.0.0, SVG Export Plug-In . SVG Version: 6.00 Build 0)  -->

<svg
   xmlns:dc="http://purl.org/dc/elements/1.1/"
   xmlns:cc="http://creativecommons.org/ns#"
   xmlns:rdf="http://www.w3.org/1999/02/22-rdf-syntax-ns#"
   xmlns:svg="http://www.w3.org/2000/svg"
   xmlns="http://www.w3.org/2000/svg"
   xmlns:sodipodi="http://sodipodi.sourceforge.net/DTD/sodipodi-0.dtd"
   xmlns:inkscape="http://www.inkscape.org/namespaces/inkscape"
   version="1.1"
   id="Layer_1"
   x="0px"
   y="0px"
   width="64px"
   height="64px"
   viewBox="0 0 64 64"
   enable-background="new 0 0 64 64"
   xml:space="preserve"
   inkscape:version="0.48.5 r10040"
   sodipodi:docname="1F625.svg"
   inkscape:export-filename="D:\TESTINGEMOJI\SVGTEST\1F625.png"
   inkscape:export-xdpi="90"
   inkscape:export-ydpi="90"><metadata
   id="metadata6085"><rdf:RDF><cc:Work
       rdf:about=""><dc:format>image/svg+xml</dc:format><dc:type
         rdf:resource="http://purl.org/dc/dcmitype/StillImage" /><dc:title></dc:title></cc:Work></rdf:RDF></metadata><defs
   id="defs6083" /><sodipodi:namedview
   pagecolor="#ffffff"
   bordercolor="#666666"
   borderopacity="1"
   objecttolerance="10"
   gridtolerance="10"
   guidetolerance="10"
   inkscape:pageopacity="0"
   inkscape:pageshadow="2"
   inkscape:window-width="640"
   inkscape:window-height="480"
   id="namedview6081"
   showgrid="false"
   inkscape:zoom="3.6875"
   inkscape:cx="32"
   inkscape:cy="32"
   inkscape:window-x="593"
   inkscape:window-y="278"
   inkscape:window-maximized="0"
   inkscape:current-layer="Layer_1" />
<g
   id="g6009">
	<g
   id="g6011">
		<g
   id="g6013">
			<path
   fill="#FBB041"
   d="M63.696,31.73c0,17.524-14.203,31.729-31.729,31.729c-17.526,0-31.729-14.204-31.729-31.729     C0.239,14.205,14.441,0,31.968,0C49.493,0,63.696,14.205,63.696,31.73z"
   id="path6015" />
		</g>
	</g>
	<g
   opacity="0.9866"
   id="g6017">
		<g
   id="g6019">
			<g
   id="g6021">
				<path
   fill="#E79D3C"
   d="M15.339,40.903C9.715,28.84,9.464,15.856,14.547,5.122C5.934,10.795,0.239,20.54,0.239,31.628      c0,17.526,14.202,31.727,31.729,31.727c0.313,0,0.617-0.039,0.929-0.048C25.623,57.187,19.493,49.82,15.339,40.903z"
   id="path6023" />
			</g>
		</g>
	</g>
	<g
   id="g6025">
		<g
   id="g6027">
			<path
   fill="#633D19"
   d="M26.893,14.085c-0.404,0.112-0.81,0.226-1.215,0.339c-0.061,0.016-0.098,0.053-0.151,0.079     c-0.061,0.023-0.12,0.047-0.175,0.088c-0.09,0.071-0.161,0.153-0.215,0.245c-0.014,0.018-0.031,0.023-0.043,0.045     c-2.132,3.676-5.792,5.396-9.978,4.533c-2.242-0.458-2.332-1.396-4.433-0.812c-0.858,0.239-0.901,1.327-0.219,1.775     c6.271,4.158,14.316,1.917,17.534-4.881C28.35,14.755,27.75,13.846,26.893,14.085z"
   id="path6029" />
		</g>
	</g>
	<g
   id="g6031">
		<g
   id="g6033">
			<path
   fill="#633D19"
   d="M36.271,14.085c0.408,0.112,0.812,0.226,1.217,0.339c0.061,0.016,0.101,0.053,0.151,0.079     c0.061,0.023,0.119,0.047,0.176,0.088c0.091,0.071,0.161,0.153,0.216,0.245c0.012,0.018,0.029,0.023,0.043,0.045     c2.132,3.676,5.793,5.396,9.977,4.533c2.243-0.458,2.333-1.396,4.434-0.812c0.858,0.239,0.901,1.327,0.216,1.775     c-6.267,4.158-14.312,1.917-17.53-4.881C34.816,14.755,35.412,13.846,36.271,14.085z"
   id="path6035" />
		</g>
	</g>
	<g
   id="g6037">
		<g
   id="g6039">
			<path
   fill="#FFFFFF"
   d="M27.506,32.657c0,5.338-2.884,9.658-6.447,9.658s-6.453-4.32-6.453-9.658c0-5.333,2.89-9.654,6.453-9.654     S27.506,27.324,27.506,32.657z"
   id="path6041" />
		</g>
	</g>
	<g
   id="g6043">
		<g
   id="g6045">
			<path
   fill="#FFFFFF"
   d="M49.327,32.657c0,5.338-2.885,9.658-6.447,9.658s-6.45-4.32-6.45-9.658c0-5.333,2.888-9.654,6.45-9.654     S49.327,27.324,49.327,32.657z"
   id="path6047" />
		</g>
	</g>
	<g
   id="g6049">
		<g
   id="g6051">
			<path
   fill="#25333A"
   d="M25.231,32.657c0,2.798-1.87,5.06-4.172,5.06c-2.307,0-4.174-2.262-4.174-5.06     c0-2.794,1.867-5.056,4.174-5.056C23.361,27.602,25.231,29.863,25.231,32.657z"
   id="path6053" />
		</g>
	</g>
	<g
   id="g6055">
		<g
   id="g6057">
			<path
   fill="#25333A"
   d="M47.052,32.657c0,2.798-1.867,5.06-4.172,5.06c-2.306,0-4.176-2.262-4.176-5.06     c0-2.794,1.87-5.056,4.176-5.056C45.185,27.602,47.052,29.863,47.052,32.657z"
   id="path6059" />
		</g>
	</g>
	<g
   id="g6061">
		<g
   id="g6063">
			<g
   id="g6065">
				<path
   fill="#28A6DE"
   d="M0.064,46.111c0,4.67,3.112,8.451,6.955,8.451c3.841,0,6.952-3.781,6.952-8.451      c0-4.666-3.111-16.176-6.952-16.176C3.176,29.936,0.064,41.445,0.064,46.111z"
   id="path6067" />
			</g>
		</g>
		<g
   id="g6069">
			<g
   id="g6071">
				<path
   fill="#58C5E8"
   d="M6.727,29.936C2.984,30.479,0,41.595,0,46.18c0,4.707,3.135,8.517,7.005,8.517      c1.764,0,3.354-0.819,4.583-2.126C6.088,46.719,4.366,37.972,6.727,29.936z"
   id="path6073" />
			</g>
		</g>
	</g>
	<g
   id="g6075">
		<g
   id="g6077">
			<path
   fill="#633D19"
   d="M21.5,54.404c-0.627,0.711-0.239,1.902,0.788,1.902c1.188,0,5.451-1.799,9.68-1.799     c4.734,0,9.421,1.799,9.68,1.799c1.031,0,1.407-1.191,0.796-1.902C36.772,47.861,27.163,47.861,21.5,54.404z"
   id="path6079" />
		</g>
	</g>
</g>
</svg>
